src/components/common/icons/male.svg

<svg height="63" viewBox="0 0 30 63" width="30" xmlns="http://www.w3.org/2000/svg"><g fill="#010202" fill-rule="evenodd" transform="translate(-1 -1)"><path d="m15.6930158 5.98752c-1.9383158 0-3.5144211 1.5456-3.5144211 3.4464 0 1.8992 1.5761053 3.4448 3.5144211 3.4448 1.9366842 0 3.5127895-1.5456 3.5127895-3.4448 0-1.9008-1.5761053-3.4464-3.5127895-3.4464m0-4.496c4.4721579 0 8.0975263 3.5568 8.0975263 7.9424s-3.6253684 7.9408-8.0975263 7.9408-8.09752633-3.5552-8.09752633-7.9408 3.62536843-7.9424 8.09752633-7.9424"/><path d="m7.74853158 63.6688h15.88668422v-18.6864h-4.5814737v14.192h-6.7221053v-14.192h-4.58310522z"/><path d="m1.17930526 44.94064h4.58310527v-14.9808c0-2.0656 1.71152631-3.7472 3.81789473-3.7472h12.22378944c2.1063685 0 3.8178948 1.6816 3.8178948 3.7472v14.9808h4.5847368v-14.9808c0-4.5456-3.7705789-8.2416-8.4026316-8.2416h-12.22378944c-4.63205263 0-8.401 3.696-8.401 8.2416z"/></g></svg>

<?xml version="1.0" encoding="UTF-8"?>
<svg width="30px" height="63px" viewBox="0 0 30 63" version="1.1" xmlns="http://www.w3.org/2000/svg" xmlns:xlink="http://www.w3.org/1999/xlink">
    <!-- Generator: Sketch 52.5 (67469) - http://www.bohemiancoding.com/sketch -->
    <title>Icons/.male</title>
    <desc>Created with Sketch.</desc>
    <g id="Vapaaehtoisalusta-Layouts" stroke="none" stroke-width="1" fill="none" fill-rule="evenodd">
        <g id="HKI-Ikonit" transform="translate(-561.000000, -523.000000)" fill="#010202">
            <g id="Icons/.male" transform="translate(560.000000, 522.000000)">
                <path d="M15.6930158,5.98752 C13.7547,5.98752 12.1785947,7.53312 12.1785947,9.43392 C12.1785947,11.33312 13.7547,12.87872 15.6930158,12.87872 C17.6297,12.87872 19.2058053,11.33312 19.2058053,9.43392 C19.2058053,7.53312 17.6297,5.98752 15.6930158,5.98752 M15.6930158,1.49152 C20.1651737,1.49152 23.7905421,5.04832 23.7905421,9.43392 C23.7905421,13.81952 20.1651737,17.37472 15.6930158,17.37472 C11.2208579,17.37472 7.59548947,13.81952 7.59548947,9.43392 C7.59548947,5.04832 11.2208579,1.49152 15.6930158,1.49152" id="Fill-94"></path>
                <polygon id="Fill-96" points="7.74853158 63.6688 23.6352158 63.6688 23.6352158 44.9824 19.0537421 44.9824 19.0537421 59.1744 12.3316368 59.1744 12.3316368 44.9824 7.74853158 44.9824"></polygon>
                <path d="M1.17930526,44.94064 L5.76241053,44.94064 L5.76241053,29.95984 C5.76241053,27.89424 7.47393684,26.21264 9.58030526,26.21264 L21.8040947,26.21264 C23.9104632,26.21264 25.6219895,27.89424 25.6219895,29.95984 L25.6219895,44.94064 L30.2067263,44.94064 L30.2067263,29.95984 C30.2067263,25.41424 26.4361474,21.71824 21.8040947,21.71824 L9.58030526,21.71824 C4.94825263,21.71824 1.17930526,25.41424 1.17930526,29.95984 L1.17930526,44.94064 Z" id="Fill-98"></path>
            </g>
        </g>
    </g>
</svg>
